X:37
T:Lucy Campbell's
Z:Gwen 2022-12-06
D:Michael McGoldrick & John McSherry: At First Light (2002)
M:2/2
R:Reel
K:D
|: ADDD DAdB | ADFA BEEE | ADFA B/c/def |1 dBAF ADDB :|2 dBAF ADDA ||
| dBA2 B/c/def | dBcA BEEE | dBAB defe | dBAF ADDA |
  dBAB defe | dBBB g3e | dBAB defe | dBAF ADDf ||
| aaaf defg | aafa bgeg | aaaf defe | dBAF ADef |
  aaaf defg | aafa bgef | ggge fffe | dBAF ADDA ||
|: dfff dfef | dfff afef |1 dffe f2fe | dBAF ADDA :|2 ggge fffe | dBAF ADDB ||

